P3
# Deterministic synthetic 8x8 visual fixture. It is not medical data.
8 8
255
20 30 40   40 50 60   60 70 80   80 90 100  100 110 120 120 130 140 140 150 160 160 170 180
30 40 50   50 60 70   70 80 90   90 100 110 110 120 130 130 140 150 150 160 170 170 180 190
40 50 60   60 70 80   80 90 100  100 110 120 120 130 140 140 150 160 160 170 180 180 190 200
50 60 70   70 80 90   90 100 110 110 120 130 130 140 150 150 160 170 170 180 190 190 200 210
60 70 80   80 90 100  100 110 120 120 130 140 140 150 160 160 170 180 180 190 200 200 210 220
70 80 90   90 100 110 110 120 130 130 140 150 150 160 170 170 180 190 190 200 210 210 220 230
80 90 100  100 110 120 120 130 140 140 150 160 160 170 180 180 190 200 200 210 220 220 230 240
90 100 110 110 120 130 130 140 150 150 160 170 170 180 190 190 200 210 210 220 230 230 240 250
